build/communication/TelegramRoundSolid.svg

<svg xmlns="http://www.w3.org/2000/svg" fill="none" viewBox="0 0 24 24" focusable="false"><path d="M0 0H24V24H0z"/><path fill="#74767B" fill-rule="evenodd" d="M12 3C7.02944 3 3 7.02944 3 12C3 16.9706 7.02944 21 12 21C16.9706 21 21 16.9706 21 12C21 7.02944 16.9706 3 12 3ZM12.3225 9.6442C11.4471 10.0083 9.6976 10.7619 7.07391 11.905C6.64787 12.0744 6.42468 12.2402 6.40437 12.4022C6.37003 12.6761 6.71303 12.784 7.1801 12.9309C7.24363 12.9508 7.30946 12.9715 7.37694 12.9935C7.83647 13.1428 8.45461 13.3176 8.77596 13.3245C9.06745 13.3308 9.39279 13.2107 9.75197 12.964C12.2034 11.3093 13.4688 10.4729 13.5482 10.4548C13.6043 10.4421 13.6819 10.4261 13.7346 10.4729C13.7872 10.5197 13.782 10.6082 13.7764 10.632C13.7319 10.822 11.4291 12.9166 11.2965 13.0542C11.226 13.1275 11.1541 13.1968 11.085 13.2635C10.6581 13.675 10.3379 13.9836 11.1027 14.4876C11.8716 14.9943 12.3191 15.3175 13.1112 15.8368C13.2165 15.9058 13.3172 15.9775 13.4152 16.0474C13.788 16.3132 14.1231 16.5521 14.5369 16.514C14.7774 16.4919 15.0258 16.2657 15.152 15.5913C15.4502 13.9974 16.0362 10.5438 16.1717 9.12073C16.1835 8.99605 16.1686 8.83648 16.1566 8.76643C16.1446 8.69638 16.1196 8.59658 16.0285 8.5227C15.9207 8.4352 15.7542 8.41675 15.6798 8.41806C15.3413 8.42403 14.8219 8.60461 12.3225 9.6442Z"/></svg>

<svg xmlns="http://www.w3.org/2000/svg" fill="none" viewBox="0 0 24 24" focusable="false"><path fill="none" d="M0 0h24v24H0z"/><path fill="#74767B" fill-rule="evenodd" d="M12 3c-4.98 0-9 4.02-9 9 0 4.97 4.02 9 9 9a9 9 0 0 0 9-9c0-4.98-4.03-9-9-9m.32 6.64c-.88.36-2.63 1.12-5.25 2.26-.43.17-.65.34-.67.5-.03.27.31.38.78.53.06.02.12.04.19.06.46.15 1.08.32 1.4.33.29.01.62-.11.98-.36 2.45-1.66 3.71-2.49 3.79-2.51.06-.01.14-.03.19.02.05.04.05.13.04.16-.04.19-2.35 2.28-2.48 2.42l-.21.21c-.43.41-.75.72.02 1.22.77.51 1.21.83 2.01 1.35l.3.21c.37.27.71.51 1.12.47.24-.02.49-.25.62-.92.3-1.6.88-5.05 1.02-6.47.01-.13-.01-.29-.02-.36a.36.36 0 0 0-.13-.24c-.1-.09-.27-.11-.35-.11-.33.01-.85.19-3.35 1.23"/></svg>
